X: 3214
T: The MAJOR
%R: jig
B: James Kerr "Merry Melodies" v.3 p.25 #214
Z: 2016 John Chambers <jc:trillian.mit.edu>
M: 6/8
L: 1/8
K: A
ud |\
 cBA  AcA | AcA Bcd |\
 cBA  ecA | dBG Bcd ::\
vc2ve eca | fdf ece |\
vc2ve ece | fga Bcd :|

%%sep 1 1 500
%%sep 1 1 500

